X:1911
T:Ol´i Tängsta
M:3/4
Z:ABC-Transkribering av Linus Fredin
O:Ångermanland
R:Polska
L:1/16
K:Gm
G3B d4 d4|d2ed c3B A3G|F3G A3B c3d|e3c (3B2c2B2 (3A2B2A2|
G3B d4 d4|d2ed c3B A3G|F3G A3B c3d|e3c (3B2c2B2 (3A2B2A2|G3g g3e d3B|(3A2B2A2 G8:|
|:B3A B3c d3f|f3=e e3g f3A|B3A G3A B3c|d4 d8|
d3^f g4 g4|B3A GA3 B3c|(3d2e2d2 (3c2d2c2 (3B2c2B2|(3A2B2A2 G8:| 
(:musicend:)
(:music:)
